svgs/sharp-light/walkie-talkie.svg

<svg xmlns="http://www.w3.org/2000/svg" viewBox="0 0 384 512"><!--! Font Awesome Pro 6.6.0 by @fontawesome - https://fontawesome.com License - https://fontawesome.com/license (Commercial License) Copyright 2024 Fonticons, Inc. --><path d="M96 16L96 0 64 0l0 16 0 80L16 96 0 96l0 16L0 312l0 6.6 4.7 4.7L32 350.6 32 496l0 16 16 0 288 0 16 0 0-16 0-145.4 27.3-27.3 4.7-4.7 0-6.6 0-200 0-16-16 0L96 96l0-80zM64 128l32 0 256 0 0 177.4-27.3 27.3-4.7 4.7 0 6.6 0 136L64 480l0-136 0-6.6-4.7-4.7L32 305.4 32 128l32 0zM176 48l-16 0 0 32 16 0 32 0 16 0 0-32-16 0-32 0zm96 0l-16 0 0 32 16 0 32 0 16 0 0-32-16 0-32 0zM96 176l0 32 16 0 160 0 16 0 0-32-16 0-160 0-16 0zm0 64l0 32 16 0 160 0 16 0 0-32-16 0-160 0-16 0zm0 64l0 32 16 0 160 0 16 0 0-32-16 0-160 0-16 0z"/></svg>

<svg xmlns="http://www.w3.org/2000/svg" viewBox="0 0 384 512"><!--! Font Awesome Pro 6.5.2 by @fontawesome - https://fontawesome.com License - https://fontawesome.com/license (Commercial License) Copyright 2024 Fonticons, Inc. --><path d="M96 16V0H64V16 96H16 0v16V312v6.6l4.7 4.7L32 350.6V496v16H48 336h16V496 350.6l27.3-27.3 4.7-4.7V312 112 96H368 96V16zM64 128H96 352V305.4l-27.3 27.3-4.7 4.7V344 480H64V344v-6.6l-4.7-4.7L32 305.4V128H64zM176 48H160V80h16 32 16V48H208 176zm96 0H256V80h16 32 16V48H304 272zM96 176v32h16H272h16V176H272 112 96zm0 64v32h16H272h16V240H272 112 96zm0 64v32h16H272h16V304H272 112 96z"/></svg>
